X:1
T:Gesammelte Motetten
T:Meine Seele harrt auf dich
T:Johann Heinrich Rolle
T:Meine Seele harrt auf dich
T:Aus Psalm 73,23-26
T:CPDL - Creative Commons Attribution Non Commercial 3.0
T:CPDL - Creative Commons Attribution Non Commercial 3.0
T:CPDL - Creative Commons Attribution Non Commercial 3.0
T:CPDL - Creative Commons Attribution Non Commercial 3.0
T:CPDL - Creative Commons Attribution Non Commercial 3.0
T:CPDL - Creative Commons Attribution Non Commercial 3.0
T:CPDL - Creative Commons Attribution Non Commercial 3.0
T:CPDL - Creative Commons Attribution Non Commercial 3.0
T:CPDL - Creative Commons Attribution Non Commercial 3.0
T:CPDL - Creative Commons Attribution Non Commercial 3.0
T:CPDL - Creative Commons Attribution Non Commercial 3.0
T:CPDL - Creative Commons Attribution Non Commercial 3.0
C:Johann Heinrich Rolle
Z:CPDL - Creative Commons Attribution Non Commercial 3.0
%%score [ 1 2 3 4 ]
L:1/8
Q:1/4=72
M:2/4
K:F
V:1 treble nm="Sopran"
V:2 treble nm="Alt"
V:3 treble-8 nm="Tenor"
V:4 bass nm="Bass"
V:1
 A/>F/ | cc cf | B2 gB | A2 z A/>c/ | F4- | FF dc | EB B (3A/G/A/ | G2 z G/>B/ | B2 AA/>c/ | %9
w: Mei- ne|See- le harrt auf|dich, harrt auf|dich, denn du|hältst|_ mich, Herr, bei|mei- ner rech- ten _ _|Hand, mei- ne|See- le, mei- ne|
 c2 =Bd/>f/ | eg cd | =B2 z e/>e/ | e4- | e4- | e4- | ec cc | c>d =B>c | c2 z"^Solo" c | %18
w: See- le, mei- ne|See- le harrt auf|dich, denn du|hältst|_||* mich, Herr, bei|mei- ner rech- ten|Hand, du|
 (E/F/)(F/G/) (G/A/)(A/B/) | (B>c B) (3A/G/A/ | Gc BA | B2 z G | (^F/G/)(G/A/) (A/B/)(B/c/) | %23
w: lei- * * * * * * *|* * * test * *|mich nach dei- nem|Rat, du|lei- * * * * * * *|
 c/d/ _e2 d | c/d/ _e2 d | cB A/B/c/A/ | Bd B/A/G/F/ | (E/F/)(F/G/) (G/A/)(A/B/) | B/c/ d2 c | %29
w: ||* * test _ _ _|mich, du lei- * * *|||
 B/c/ d2 c | B A/G/ cF | FE"^Tutti" z2 | z4 | z2 z e/>c/ | ff fA | B2 gB | A2 dD | D4- | %38
w: * * * test|mich nach _ dei- nem|Rat, _||mei- ne|See- le harrt auf|dich, harrt auf|dich, denn du|hältst|
 DD z B/>B/ | (AGAG | c)B dd | d c/B/ AG | Ff/>f/ (f2- | f2 e2- | e2) d2 | d2 ^c2 | de A^c | %47
w: _ mich, denn du|hältst _ _ _|_ mich, Herr, bei|mei- ner _ rech- ten|Hand, denn du hältst|_ _|* mich,|Herr, bei|mei- ner rech- ten|
 d2 z2 | z4 | z4 | z4 | z4 | z4 | z4 | z4 | z"^Tutti" G c2- | cA f2- | fd ec | d2 =B2 | c2 z2 || %60
w: Hand,||||||||und nimmst|_ mich end-|* * lich mit|Eh- ren|an.|
[M:4/4][Q:1/4=96]"^Un poco Allegro" z4 ffff | g2 dd eg/f/ ec | f2 d2 BG z2 | cccc d2 AA | %64
w: Wenn ich nur dich|ha- be, so frag' _ _ _ ich|nichts nach Him- mel,|wenn ich nur dich ha- be, so|
 Bd/c/ BB c2 z2 | ffff g2 gd | eg/f/ ec f3 e | df/e/ dB e3 d | ^cA z f e2 fd | eA z2 || %70
w: frag' _ _ _ ich nichts,|wenn ich nur dich ha- be, so|frag' _ _ _ ich nichts, so|frag' _ _ _ ich nichts nach|Him- mel, nach Him- mel und|Er- de.|
[M:3/4]"^Solo" A2 A2 B2 | c2 F4 | G2 G2 A2 | BA B2 z2 | B2 B2 d2 | (c2 B2) A2 | G^F G2 A2 | %77
w: Wenn mir gleich|Leib und|See- le ver-|schmach- * tet,|wenn mir gleich|Leib _ und|See- * le ver-|
 ^FA B4 | A2 cA B2 | A2 B4 | A2 cA B2- | B2 A2 c2 | c2 =B2 d2- | d2 c2 _B2- | B2 A2 c2- | %85
w: schmach- * *||||* tet, ver-|schmach- * *|||
 c2 B2 A2 | G2 _A4 | G2 BG _A2 | G2 _A4 | G2 BG _A2- | A2 G2 !fermata!z2 || %91
w: |||||* tet.|
[M:4/4][Q:1/4=194]"^Alla breve" z8 | z8 | z8 | z8 | z8 | z8 | z8 | z8 | z4 f4 | e4 c2 c2 | %101
w: ||||||||So|bist du doch,|
 d4 e2 e2 | f4 f4- | f2 ed e2 c2 | d4 g4- | g2 fe f2 d2 | e4 z4 | z4 d4 | c4 A2 A2 | =B4 ^c2 c2 | %110
w: Gott, al- le|Zeit mei-|* nes * Her- zens|Trost, mei-|* nes * Her- zens|Trost,|so|bist du doch,|Gott, al- le|
 d4 d4- | d2 =c=B c2 A2 | f4 f4- | f2 ed e2 c2 | d4 | g4- | g2 fe f2 d2 | e4 A2 A2 | d4 z4 | z8 | %120
w: Zeit mei-|* nes * Her- zens|Trost, mei-|* nes * Her- zens|Trost,|mei-|* nes * Her- zens|Trost und mein|Teil,||
 z8 | z8 | z8 | z8 | z8 | z8 | z4 c4 | d4 B2 B2 | c4 | A2 A2 | B4 G2 G2 | A4 F4 | (G2 A2) B2 A2 | %133
w: ||||||so|bist du doch,|Gott,|al- le|Zeit mei- nes|Her- zens|Trost * und mein|
 G4 z4 | z4 f4 | e4 c2 c2 | d4 e2 e2 | f4 f4- | f2 ed e2 c2 | (d6 ed | c6 dc) | B6 cB | A6 BA | %143
w: Teil,|so|bist du doch,|Gott, al- le|Zeit mei-|* nes * Her- zens|Trost, _ _|_ _ _|mei- nes *|Her- zens *|
 (G2 A2) B2 G2 | F4 z2 A2 | B4 c2 c2 | d4 B2 G2 | c4 f4- | f2 e2 f2 F2 | A4 B2 G2 | !fermata!F8 |] %151
w: Trost * und mein|Teil, so|bist du doch,|Gott, al- le|Zeit mei-|* nes Her- zens|Trost und mein|Teil.|
V:2
 F/>F/ | FE FA | G2 BG | F2 z2 | z F/>F/ (GA | B)A FF | EG G (3F/E/F/ | E2 z E/>G/ | G2 FF/>A/ | %9
w: Mei- ne|See- le harrt auf|dich, harrt auf|dich,|denn du hältst _|_ mich, Herr, bei||||
 A2 GG/>G/ | GG AA | G2 z G/>G/ | G4- | G4- | G4 | AA AA | G^F GG | G2 z C | %18
w: |||||||||
 (C/D/)(D/E/) (E/F/)(F/G/) | G3 (3F/E/F/ | EA G^F | G2 z G | (D/E/)(E/^F/) (F/G/)(G/A/) | %23
w: |||||
 A/B/ c2 B | A/B/ c2 B | AG ^F/G/A/F/ | G2 z D | (C/D/)(D/E/) (E/F/)(F/G/) | G/A/ B2 A | %29
w: |||* du|lei- * * * * * * *||
 G/A/ B2 A | G F/E/ FA | G2 z2 | z2 z A/>F/ | cc cc | F2 FA | G2 BG | F2 z D/>D/ | (EFGF | %38
w: * * * test|mich nach _ dei- nem|Rat,|mei- ne|See- le harrt auf|dich, harrt auf|dich, harrt auf|dich, denn du||
 B)A z G/>G/ | (^FGFG | ^F)G z"^mich   bei" A/>A/ | BG EE | DA/>A/ ((A2 | G2) (G2 | F2)) F2 | %45
w: |||||||
 E2 E2 | FE EE | F2 z F | (G/A/)(A/B/-) B A/G/ | AF c2- | c=B/c/ dF | EC G2- | G4- | GC GG | G3 G | %55
w: ||Hand, du|lei- * * * * test *|mich nach dei-|* * * * nem|Rat, du lei-||* test mich nach|dei- nem|
 G2 z G | A3 A | G2 GG | A2 G2 | G2 z2 ||[M:4/4] cccc d2 AA | Bd/c/ BG c3 B | A2 FF DB, z2 | %63
w: Rat und|nimmst mich|end- lich mit|Eh- ren|an.|Wenn ich nur dich ha- be, so|frag' _ _ _ ich nichts nach|Him- mel und Er- de,|
 G2 z2 FFFF | G2 DD EG/F/ EC | F2 A2 G2 GG | G2 G_B AF/G/ Ac | F3 B GE/F/ GG | E2 z A A2 AA | %69
w: nichts, wenn ich nur dich|ha- be, so frag' _ _ _ ich|nichts mach Him- mel und|Er- de, so frag' _ _ _ ich|nichts, so frag' _ _ _ ich|nichts nach Him- mel und|
 AE z2 ||[M:3/4] F2 F2 G2 | A2 D4 | E2 E2 ^F2 | G^F G2 z2 | G2 G2 A2 | G4 ^F2 | D2 D2 _E2 | %77
w: Er- de.||||||||
 D^F G4 | ^F2 AF G2 | ^F2 G4 | ^F2 AF G2- | G2 ^F2 z A | G6- | G6 | =F6- | F6 | E2 F4 | E2 GE F2 | %88
w: schmach- * *||||* tet, ver-|schmach-||||||
 E2 F4 | E2 GE F2- | F2 E2 !fermata!z2 ||[M:4/4] z8 | z8 | z8 | z8 | z8 | z8 | z8 | z4 c4 | %99
w: ||* tet.||||||||So|
 A4 F2 F2 | G4 A2 A2 | B4 B4- | B2 AG A2 F2 | G4 c4- | c2 BA B2 G2 | A4 d4- | d4 ^c4 | d4 z2 F2 | %108
w: bist du doch,|Gott, al- le|Zeit mei-|* nes * Her- zens|Trost, mei-|* nes * Her- zens|Trost und|_ mein|Teil, so|
 G4 A2 A2 | D4 E2 A2 | A4 A2 F2 | E4 z4 | z4 c2 A2 | G4 G4 | G4 | G2 B2 | A4 A4 | G4 F2 E2 | %118
w: bist du doch,|Gott, al- le|Zeit, al- le|Zeit|mei- nes|Her- zens|Trost,|mei- nes|Her- zens|Trost und mein|
 F4 F2 F2 | (G4 A2) D2 | D4 E2 E2 | A4 z2 F2 | (F4 E4) | z4 c2 A2 | G8- | G8 | z4 A2 A2 | %127
w: Teil, mei- nes|Her- * zens|Trost und mein|Teil, mein|Trost _|und mein|Teil,|_|mei- nes|
 A2 B2 G4- | G2 A2 | F4- | F2 G2 E4- | E2 F2 D4 | (E2 F2) (E2 F2) | E4 c4 | A4 F2 F2 | G4 A2 A2 | %136
w: Her- * *|||||* * zens _|Trost, so|bist du doch,|Gott, al- le|
 B4 B4- | B2 AG A2 F2 | G4 c4- | c2 BA B4- | B2 AG A4- | A2 GF G4- | G2 FE F4 | (E2 F2) G2 E2 | %144
w: Zeit mei-|* nes * Her- zens|Trost, mei-|* nes * Her-|||* * * zens|Trost * und mein|
 C4 z2 F2 | E4 F2 F2 | F4 G2 G2 | G4 A4- | A2 G2 A2 F2 | F4 G2 E2 | !fermata!C8 |] %151
w: Trost, so|bist du doch,|Gott, al- le|Zeit mei-|* nes Her- zens|Trost und mein|Teil.|
V:3
 c/>B/ | cB Ad | d2 cc | c2 z2 | z c/>c/ (dc | B)c df | Bc cc | c2 z2 | z c/>c/ cc | z d/>d/ d=B | %10
w: ||||||mei- ner rech- ten|Hand,|mei- ne See- le,|mei- ne See- le|
 cd ed | d2 z c/>c/ | c4- | c4- | c4- | ce ee | ed dd | e2 z2 | z c (BA | GE F)A | c2 z d | %21
w: harrt auf dich, auf|dich, denn du|hältst|_||* mich, Herr, bei|mei- ner rech- ten|Hand,|du lei- *|* * * test|mich, du|
 (G/A/)(A/B/) (B/c/)(c/d/) | d2 cB | AG^FG | AG ^FG | (AB/c/ d)D | G2 z B | c2 BA | GFEF | GF EF | %30
w: lei- * * * * * * *||||* * * * test|mich, du|lei- * *||* * * test|
 Gc AF | c2 z e/>c/ | ff ff | e2 ec | c2 cd | d2 cc | c2 z2 | z4 | z d/>d/ d2- | d4- | dd z d/>f/ | %41
w: mich nach dei- nem|Rat, mei- ne|See- le harrt auf|dich, harrt auf|dich, harrt auf|dich, harrt auf|dich,||denn du hältst|_|* mich, mich bei|
 ee ^cc | Ad/>d/ (d2- | d2 c2- | c2) B2 | B2 A2 | A=B ^cA | A2 z d | (e/f/)(f/g/-) g f/e/ | %49
w: mei- ner rech- ten|Hand, denn du hältst|_ _|* mich,|Herr, bei|mei- ner rech- ten|Hand, du|lei- * * * * test *|
 f2 z c | d>c =B2 | c2 z e | d/e/d/c/ =BA | G2 z e | d/e/d/c/ =BA | G2 z e | c3 d | d=B ce | %58
w: mich nach|dei- * nem|Rat, du|lei- * * * * test|mich nach|dei- * * * * nem|Rat und|nimmst mich|end- * lich mit|
 d2 d2 | e2 z2 ||[M:4/4] z8 | z4 cccc | d2 AA Bd/c/ BG | c2 B2 AF z2 | z4 cccc | d2 dd d3 d | %66
w: Eh- ren|an.||Wenn ich nur dich|ha- be, so frag' _ _ _ ich|nichts nach Him- mel,|wenn ich nur dich|ha- be, so frag ich|
 ce/d/ ce cA/B/ cc | Bd/c/ Bd BG/A/ BB | A2 z d ^c2 d=B | ^cc z2 ||[M:3/4] d2 =c2 _B2 | %71
w: nichts, _ _ _ so frag' _ _ _ ich|nichts, _ _ _ so frag' _ _ _ ich|nichts nach Him- mel und|Er- de.|Wenn mir gleich|
 (A2 B2) d2 | c2 B2 A2 | G2 G2 z2 | d2 d2 d2 | d4 c2 | B2 B2 A2 | (d4 ^c2) | d6 | z2 z2 ^c2 | d6- | %81
w: Leib _ und|See- le ver-|schmach- tet,|wenn mir gleich|Leib und|See- le ver-|schmach- *|tet,|ver-|schmach-|
 d2 d2 z d | d4 f2 | e4 c2- | c4 _e2 | d6 | G2 z2 =B2 | c6 | z2 z2 =B2 | c4 c2 | %90
w: * tet, ver-|schmach- *||||tet, gleich|Leib|und|Seel´ ver-|
 c2 c2 !fermata!z2 ||[M:4/4] z8 | z4 f4 | e4 c2 c2 | d4 e2 e2 | f4 f4- | f2 ed e2 c2 | d4 f4- | %98
w: schmach- tet,||So|bist du doch,|Gott, al- le|Zeit mei-|* nes * Her- zens|Trost und|
 f4 e4 | f4 z2 A2 | c4 c2 f2 | f4 z2 c2 | c4 c2 c2 | c4 z4 | z8 | z8 | z4 A4 | F4 D2 D2 | %108
w: _ mein|Teil, so|bist du doch,|Gott, mein|Trost und mein|Teil,|||so|bist du doch,|
 E4 ^F2 F2 | G4 G4- | G2 FE F2 D2 | A4 A4- | A2 AG A2 F2 | c4 c4- | c2 BA | B2 G2 | d4 d4- | %117
w: Gott, al- le|Zeit mei-|* nes * Her- zens|Trost, mei-|* nes * Her- zens|Trost, mei-|* nes *|Her- zens|Trost und|
 d4 ^c4 | d4 z2 d2 | c4 A2 A2 | =B4 ^c2 c2 | d4 d4- | d2 ^c=B c2 A2 | f4 f4- | f2 ed e2 c2 | %125
w: _ mein|Teil so|bist du doch,|Gott, al- le|Zeit mei-|* nes * Her- zens|Trost, mei-|* nes * Her- zens|
 d4 f2 d2 | e4 c4 | c4 c2 c2 | c4 | d2 d2 | G4 c2 c2 | F4 B4 | (B2 A2) G2 F2 | c4 z4 | z8 | z8 | %136
w: Trost und mein|Teil, so|bist du doch,|Gott,|al- le|Zeit mei- nes|Her- zens|Trost * und mein|Teil,|||
 z8 | z4 F2 A2 | c8- | c8- | c8- | c8- | c8- | c4 c4 | c4 z2 c2 | c4 c2 f2 | d4 d2 d2 | e4 c4- | %148
w: |mei- nes|Her-|||||* zens|||||
 c2 c2 c2 A2 | c4 c2 B2 | !fermata!A8 |] %151
w: |||
V:4
 F,/>G,/ | A,G, A,F, | G,2 E,C, | F,2 F,E, | (D,A,,B,,C, | D,)C, B,,A,, | G,,E, F,F,, | C,2 z2 | %8
w: |||* denn du|hältst _ _ _|_ mich, Herr, bei|||
 z C,/>E,/ F,F,, | z D,/>^F,/ G,G,, | C=B, A,F, | G,2 z2 | z C/>C/ =B,B, | A,A,/>A,/ A,C | %14
w: ||||denn du hältst mich,|Herr, denn du hältst mich,|
 E,E,/>E,/ E,G, | ^F,2 z F, | G,A, G,G,, | C,2 z2 | z4 | z4 | z4 | z4 | z4 | z4 | z4 | z4 | z4 | %27
w: Herr, denn du hältst mich,|Herr, *||||||||||||
 z4 | z4 | z4 | z2 z"^Tutti" A,/>F,/ | CC CC | A,2 A,D, | C,2 z B, | A, A,2 F, | G,2 E,C, | %36
w: |||mei- ne|See- le harrt auf|dich, harrt auf|dich, auf|dich, harrt auf|dich, harrt auf|
 F,2 z F,/>F,/ | (G,A,B,A, | G,)F, z G,/>G,/ | (A,B,CB, | A,)G, z F,/>F,/ | G,G, A,A,, | %42
w: dich, denn du|hältst _ _ _|_ mich, denn du|hältst _ _ _|_ mich, mich bei|mei- ner rech- ten|
 D,2 z D/>C/ | B,D G,C/>B,/ | A,C F,B,/>A,/ | G,B, E,A, | F,G, A,A,, | D,2 z2 | z C, CC, | %49
w: Hand, denn du|hältst mich, Herr, denn du|hältst mich, Herr, denn du|hältst mich Herr, bei|mei- ner rech- ten|Hand,|du lei- test|
 F,2 z E, | F,2 G,2 | C,2 z C | =B,/C/B,/A,/ G,F, | E,2 z C | =B,/C/B,/A,/ G,F, | E,2 z C, | %56
w: mich nach|dei- nem|Rat, *|||||
 F,3 D, | G,2 CE, | F,2 G,2 | C,2 z2 ||[M:4/4] z8 | z8 | F,F,F,F, G,2 D,D, | E,G,/F,/ E,C, F,2 z2 | %64
w: ||||||wenn ich nur dich ha- be, so|frag' _ _ _ ich nichts,|
 z8 | z4 =B,B,B,B, | C2 CG, A,C/B,/ A,F, | B,3 F, G,B,/A,/ G,E, | A,2 z A, A,2 A,A, | A,A,, z2 || %70
w: |wenn ich nur dich|ha- be, so frag' _ _ _ ich|nichts, * * * * * *|||
[M:3/4] z6 | z6 | z6 | G,,2 B,,2 D,2 | G,4 ^F,2 | (G,2 G,,2) A,,2 | B,,2 B,,2 C,2 | D,2 D,2 z2 | %78
w: |||Wenn mir gleich|Leib, gleich|Leib _ und|See- le ver-|schmach- tet,|
 D,2 D2 G,2 | D,4 z2 | D,2 D2 G,2 | D,2 D,2 z D, | G,4 =B,,2 | C,4 E,2 | F,4 A,,2 | B,,4 =B,,2 | %86
w: wenn mir gleich|Leib|und Seel´ ver-|schmach- tet, ver-|schmach- *||||
 C,2 C,2 z2 | C,2 C2 F,2 | C,4 z2 | C,2 C2 F,2 | C,2 C,2 !fermata!z2 ||[M:4/4] z4 C4 | %92
w: * tet,|wenn mir gleich|Leib|und Seel´ ver-|schmach- tet,|So|
 A,4 F,2 F,2 | G,4 A,2 A,2 | B,4 B,4- | B,2 A,G, A,2 F,2 | G,4 C4- | C4 =B,4 | C4 z4 | %99
w: bist du doch,|Gott, al- le|Zeit mei-|* nes * Her- zens|Trost und|_ mein|Teil,|
 z2 F,2 A,2 F,2 | C,4 F,2 F,2 | B,,4 C,4 | F,6 A,2 | C4 C,4 | G,4 G,2 B,2 | D4 D,2 F,2 | A,4 z4 | %107
w: so bist du|doch al- le|Zeit, Gott,|mei- nes|Her- zens|Trost und mein|Teil, und mein|Teil,|
 z8 | z8 | z8 | z8 | z8 | z8 | z8 | z4 | z4 | z8 | z4 A,4 | F,4 D,2 D,2 | E,4 ^F,2 F,2 | G,4 G,4- | %121
w: ||||||||||so|bist du doch,|Gott, al- le|Zeit mei-|
 G,2 F,E, F,2 D,2 | A,4 A,4- | A,2 A,G, A,2 F,2 | C4 C4- | C4 =B,4 | C4 z4 | z8 | z4 | z4 | z8 | %131
w: * nes * Her- zens|Trost, mei-|* nes * Her- zens|Trost und|_ mein|Teil,|||||
 z8 | z8 | z8 | z8 | z8 | z8 | z8 | z8 | z8 | z8 | z8 | z8 | z4 C4 | A,4 F,2 F,2 | G,4 A,2 A,2 | %146
w: ||||||||||||so|bist du doch,|Gott, al- le|
 B,4 B,4- | B,2 A,G, A,2 F,2 | C,8 | C,4 C,4 | !fermata![F,,F,]8 |] %151
w: Zeit mei-|* nes * Her- zens|Trost|und mein|Teil.|

